appleappstoreconnect.svg

<?xml version="1.0" encoding="UTF-8"?>
<svg width="183px" height="21px" viewBox="0 0 183 21" version="1.1" xmlns="http://www.w3.org/2000/svg" xmlns:xlink="http://www.w3.org/1999/xlink">
    <g id="asc_logo_with_glyph" stroke="none" stroke-width="1" fill="none" fill-rule="evenodd">
        <g id="Group" fill="#000000" fill-rule="nonzero">
            <path d="M36.4042969,17 L35.3232422,13.7216797 L30.65625,13.7216797 L29.5751953,17 L27.2373047,17 L31.7373047,4.31738281 L34.2949219,4.31738281 L38.7949219,17 L36.4042969,17 Z M32.9589844,6.55859375 L31.1835938,11.9726562 L34.7871094,11.9726562 L33.0205078,6.55859375 L32.9589844,6.55859375 Z M45.3239396,7.52539062 C47.6881974,7.52539062 49.1911271,9.36230469 49.1911271,12.3417969 C49.1911271,15.3125 47.6969865,17.1494141 45.3590959,17.1494141 C44.0055802,17.1494141 42.9508927,16.4990234 42.4411271,15.453125 L42.3971818,15.453125 L42.3971818,20.0673828 L40.2087052,20.0673828 L40.2087052,7.68359375 L42.3444474,7.68359375 L42.3444474,9.29199219 L42.3883927,9.29199219 C42.9157365,8.2109375 43.970424,7.52539062 45.3239396,7.52539062 Z M44.6559709,15.3564453 C46.0710099,15.3564453 46.9499162,14.1875 46.9499162,12.3417969 C46.9499162,10.5048828 46.0710099,9.32714844 44.6559709,9.32714844 C43.2936662,9.32714844 42.3883927,10.53125 42.3796037,12.3417969 C42.3883927,14.1699219 43.2936662,15.3564453 44.6559709,15.3564453 Z M55.9926058,7.52539062 C58.3568636,7.52539062 59.8597933,9.36230469 59.8597933,12.3417969 C59.8597933,15.3125 58.3656527,17.1494141 56.027762,17.1494141 C54.6742464,17.1494141 53.6195589,16.4990234 53.1097933,15.453125 L53.065848,15.453125 L53.065848,20.0673828 L50.8773714,20.0673828 L50.8773714,7.68359375 L53.0131136,7.68359375 L53.0131136,9.29199219 L53.0570589,9.29199219 C53.5844027,8.2109375 54.6390902,7.52539062 55.9926058,7.52539062 Z M55.324637,15.3564453 C56.7396761,15.3564453 57.6185823,14.1875 57.6185823,12.3417969 C57.6185823,10.5048828 56.7396761,9.32714844 55.324637,9.32714844 C53.9623323,9.32714844 53.0570589,10.53125 53.0482698,12.3417969 C53.0570589,14.1699219 53.9623323,15.3564453 55.324637,15.3564453 Z M65.1219303,13.4580078 L67.2928288,13.4580078 C67.4598209,14.6269531 68.6023991,15.3300781 70.1844303,15.3300781 C71.7137272,15.3300781 72.7772038,14.5742188 72.7772038,13.5195312 C72.7772038,12.6054688 72.1443913,12.0429688 70.4920475,11.7001953 L69.1297428,11.4189453 C66.5897038,10.9003906 65.4031803,9.70507812 65.4031803,7.85058594 C65.4031803,5.61816406 67.3631413,4.10644531 70.1141178,4.10644531 C72.9178288,4.10644531 74.7723209,5.63574219 74.8250553,7.90332031 L72.6541569,7.90332031 C72.5486881,6.70800781 71.546735,5.98730469 70.0965397,5.98730469 C68.6902897,5.98730469 67.6883366,6.65527344 67.6883366,7.71875 C67.6883366,8.58007812 68.3211491,9.13378906 69.9031803,9.46777344 L71.2742741,9.74902344 C73.9461491,10.3027344 75.06236,11.375 75.06236,13.2558594 C75.06236,15.6816406 73.1551334,17.2109375 70.1053288,17.2109375 C67.1697819,17.2109375 65.2273991,15.7783203 65.1219303,13.4580078 Z M77.4253621,5.50390625 L79.6138387,5.50390625 L79.6138387,7.68359375 L81.3716512,7.68359375 L81.3716512,9.37109375 L79.6138387,9.37109375 L79.6138387,14.2138672 C79.6138387,14.9785156 79.9654012,15.3300781 80.7388387,15.3300781 C80.9409871,15.3300781 81.2222371,15.3125 81.3628621,15.2861328 L81.3628621,16.9560547 C81.1255574,17.0087891 80.6948934,17.0439453 80.2290731,17.0439453 C78.2163777,17.0439453 77.4253621,16.3320312 77.4253621,14.5214844 L77.4253621,9.37109375 L76.0894246,9.37109375 L76.0894246,7.68359375 L77.4253621,7.68359375 L77.4253621,5.50390625 Z M87.0832861,17.1845703 C84.3498877,17.1845703 82.574497,15.3652344 82.574497,12.3417969 C82.574497,9.3359375 84.3674658,7.49023438 87.0832861,7.49023438 C89.7991064,7.49023438 91.5920752,9.32714844 91.5920752,12.3417969 C91.5920752,15.3652344 89.8166845,17.1845703 87.0832861,17.1845703 Z M87.0832861,15.453125 C88.471958,15.453125 89.3684424,14.328125 89.3684424,12.3417969 C89.3684424,10.3642578 88.471958,9.23046875 87.0832861,9.23046875 C85.7034033,9.23046875 84.7981299,10.3642578 84.7981299,12.3417969 C84.7981299,14.328125 85.6946142,15.453125 87.0832861,15.453125 Z M93.2783195,17 L93.2783195,7.68359375 L95.3789054,7.68359375 L95.3789054,9.30957031 L95.4228507,9.30957031 C95.739257,8.17578125 96.5566398,7.52539062 97.6552726,7.52539062 C97.9365226,7.52539062 98.1826164,7.578125 98.3408195,7.61328125 L98.3408195,9.59082031 C98.1562492,9.52050781 97.8222648,9.46777344 97.4531242,9.46777344 C96.2138664,9.46777344 95.466796,10.2675781 95.466796,11.5771484 L95.466796,17 L93.2783195,17 Z M105.564173,14.2138672 L107.612025,14.2138672 C107.330775,15.9716797 105.696009,17.1845703 103.489954,17.1845703 C100.695033,17.1845703 99.0075325,15.3476562 99.0075325,12.3769531 C99.0075325,9.43261719 100.712611,7.49023438 103.402064,7.49023438 C106.047572,7.49023438 107.699915,9.32714844 107.699915,12.1572266 L107.699915,12.8691406 L101.18722,12.8691406 L101.18722,13.0009766 C101.18722,14.4951172 102.101283,15.4970703 103.5339,15.4970703 C104.553431,15.4970703 105.326868,14.9873047 105.564173,14.2138672 Z M103.410853,9.18652344 C102.180384,9.18652344 101.292689,10.1269531 101.204798,11.4277344 L105.555384,11.4277344 C105.511439,10.109375 104.667689,9.18652344 103.410853,9.18652344 Z M118.956193,17.2109375 C115.335099,17.2109375 113.058732,14.7236328 113.058732,10.6542969 C113.058732,6.61132812 115.352677,4.10644531 118.956193,4.10644531 C121.900529,4.10644531 124.14174,5.94335938 124.42299,8.66796875 L122.190568,8.66796875 C121.89174,7.07714844 120.599748,6.03125 118.956193,6.03125 C116.776505,6.03125 115.379045,7.82421875 115.379045,10.6542969 C115.379045,13.5019531 116.767716,15.2861328 118.964982,15.2861328 C120.643693,15.2861328 121.847795,14.3808594 122.199357,12.8515625 L124.42299,12.8515625 C124.027482,15.5673828 121.953263,17.2109375 118.956193,17.2109375 Z M130.319195,17.1845703 C127.585797,17.1845703 125.810406,15.3652344 125.810406,12.3417969 C125.810406,9.3359375 127.603375,7.49023438 130.319195,7.49023438 C133.035015,7.49023438 134.827984,9.32714844 134.827984,12.3417969 C134.827984,15.3652344 133.052594,17.1845703 130.319195,17.1845703 Z M130.319195,15.453125 C131.707867,15.453125 132.604351,14.328125 132.604351,12.3417969 C132.604351,10.3642578 131.707867,9.23046875 130.319195,9.23046875 C128.939312,9.23046875 128.034039,10.3642578 128.034039,12.3417969 C128.034039,14.328125 128.930523,15.453125 130.319195,15.453125 Z M136.514228,17 L136.514228,7.68359375 L138.614814,7.68359375 L138.614814,9.28320312 L138.65876,9.28320312 C139.159736,8.17578125 140.1529,7.5078125 141.585518,7.5078125 C143.642158,7.5078125 144.811103,8.82617188 144.811103,10.9794922 L144.811103,17 L142.622627,17 L142.622627,11.4189453 C142.622627,10.1005859 142.007393,9.36230469 140.759346,9.36230469 C139.50251,9.36230469 138.702705,10.2675781 138.702705,11.6035156 L138.702705,17 L136.514228,17 Z M146.840121,17 L146.840121,7.68359375 L148.940707,7.68359375 L148.940707,9.28320312 L148.984652,9.28320312 C149.485629,8.17578125 150.478793,7.5078125 151.91141,7.5078125 C153.968051,7.5078125 155.136996,8.82617188 155.136996,10.9794922 L155.136996,17 L152.94852,17 L152.94852,11.4189453 C152.94852,10.1005859 152.333285,9.36230469 151.085238,9.36230469 C149.828402,9.36230469 149.028598,10.2675781 149.028598,11.6035156 L149.028598,17 L146.840121,17 Z M163.335936,14.2138672 L165.383787,14.2138672 C165.102537,15.9716797 163.467772,17.1845703 161.261717,17.1845703 C158.466795,17.1845703 156.779295,15.3476562 156.779295,12.3769531 C156.779295,9.43261719 158.484373,7.49023438 161.173826,7.49023438 C163.819334,7.49023438 165.471678,9.32714844 165.471678,12.1572266 L165.471678,12.8691406 L158.958983,12.8691406 L158.958983,13.0009766 C158.958983,14.4951172 159.873045,15.4970703 161.305662,15.4970703 C162.325194,15.4970703 163.098631,14.9873047 163.335936,14.2138672 Z M161.182616,9.18652344 C159.952147,9.18652344 159.064451,10.1269531 158.976561,11.4277344 L163.327147,11.4277344 C163.283201,10.109375 162.439451,9.18652344 161.182616,9.18652344 Z M175.366907,11.0058594 L173.301477,11.0058594 C173.125696,10.0126953 172.43136,9.265625 171.262415,9.265625 C169.882532,9.265625 168.994836,10.4257812 168.994836,12.3417969 C168.994836,14.2929688 169.891321,15.4179688 171.279993,15.4179688 C172.387415,15.4179688 173.108118,14.7851562 173.310266,13.7304688 L175.375696,13.7304688 C175.199915,15.8134766 173.591516,17.1845703 171.253625,17.1845703 C168.529016,17.1845703 166.771204,15.3652344 166.771204,12.3417969 C166.771204,9.36230469 168.529016,7.49023438 171.236047,7.49023438 C173.696985,7.49023438 175.217493,9.04589844 175.366907,11.0058594 Z M177.562917,5.50390625 L179.751393,5.50390625 L179.751393,7.68359375 L181.509206,7.68359375 L181.509206,9.37109375 L179.751393,9.37109375 L179.751393,14.2138672 C179.751393,14.9785156 180.102956,15.3300781 180.876393,15.3300781 C181.078542,15.3300781 181.359792,15.3125 181.500417,15.2861328 L181.500417,16.9560547 C181.263112,17.0087891 180.832448,17.0439453 180.366628,17.0439453 C178.353932,17.0439453 177.562917,16.3320312 177.562917,14.5214844 L177.562917,9.37109375 L176.226979,9.37109375 L176.226979,7.68359375 L177.562917,7.68359375 L177.562917,5.50390625 Z" id="AppStoreConnect"></path>
            <g id="AMP/Icon/Glyph/App-Store" transform="translate(0.000000, 1.000000)">
                <path d="M19.5536883,11.7664573 C19.3919905,11.5499932 19.1653024,11.3936042 18.9083154,11.3212236 C18.7868854,11.2881848 18.6622964,11.2687369 18.5367476,11.2632233 C18.3978647,11.2550736 18.2590401,11.2557577 18.120099,11.2557577 L15.3686803,11.2557577 L11.7321853,4.82001989 C11.2568337,5.3130534 10.9446819,5.94581668 10.8395956,6.62938982 C10.7066656,7.48141845 10.8665139,8.35417787 11.2920061,9.09951647 L15.6618224,16.8330322 C15.7313076,16.9559927 15.8001229,17.0791615 15.8764808,17.1980174 C15.9439271,17.3063414 16.0227091,17.4068515 16.1114372,17.4977746 C16.5015316,17.8908196 17.1006696,17.9692111 17.5751727,17.6892905 C18.0496759,17.4093698 18.2825719,16.8401417 18.1441537,16.2986268 C18.111454,16.1746621 18.0656576,16.0546951 18.0075715,15.9408396 C17.9450174,15.8138637 17.8750081,15.6913493 17.805523,15.5683887 L16.7979013,13.7850148 L18.1200407,13.7850148 C18.2589818,13.7850148 18.3978065,13.7856989 18.5366894,13.7775789 C18.6622391,13.7720542 18.7868279,13.7525964 18.9082571,13.7195489 C19.2983322,13.6099538 19.6096426,13.309644 19.7390212,12.9181411 C19.8683998,12.5266381 19.7989504,12.0950702 19.5536883,11.7664573 Z M7.3043288,11.2557577 L12.3715591,2.2880263 C12.4410151,2.16506576 12.5110244,2.04258113 12.5735494,1.91560519 C12.6316525,1.80175416 12.6774589,1.68178631 12.7101608,1.55781799 C12.848916,1.01621608 12.6160892,0.446703718 12.1414438,0.166692165 C11.6667984,-0.113319387 11.0674523,-0.0347377634 10.6774442,0.358640461 C10.5887159,0.449574091 10.5099339,0.550094096 10.4424878,0.658427407 C10.3661299,0.777402284 10.2973146,0.900452051 10.2278295,1.02341259 L9.90748733,1.59053608 L9.58714519,1.02341259 C9.51766006,0.900452051 9.44884474,0.777253566 9.37248682,0.658427407 C9.30504079,0.550094096 9.22625878,0.449574091 9.13753042,0.358640461 C8.74743329,-0.034416614 8.14828236,-0.112810151 7.67377333,0.167120945 C7.1992643,0.447052042 6.96637553,1.01629774 7.10481389,1.55781799 C7.13751573,1.68178631 7.1833222,1.80175416 7.24142525,1.91560519 C7.30395022,2.04258113 7.37395954,2.16506576 7.44341554,2.2880263 L8.47847014,4.11979325 L4.44606143,11.2557577 L1.68287744,11.2557577 C1.54393631,11.2557577 1.40511168,11.2550736 1.26622879,11.2632233 C1.14067995,11.2687369 1.01609102,11.2881848 0.894661026,11.3212236 C0.366191074,11.4697469 0,11.9605726 0,12.5203862 C0,13.0801999 0.366191074,13.5710256 0.894661026,13.7195489 C1.01609022,13.7525964 1.14067902,13.7720542 1.26622879,13.7775789 C1.40511168,13.7856989 1.54393631,13.7850148 1.68287744,13.7850148 L12.5436993,13.7850148 C12.5770763,13.714336 12.6048318,13.6410291 12.6266971,13.5658036 C12.9708319,12.4159412 12.1161882,11.2557577 10.9393676,11.2557577 L7.3043288,11.2557577 Z M2.68036464,14.3806328 L2.00921872,15.5683887 C1.93976272,15.6913493 1.8697534,15.8138637 1.80719931,15.9408396 C1.74911322,16.0546951 1.70331683,16.1746621 1.67061707,16.2986268 C1.53188211,16.8402233 1.76471611,17.4097181 2.23935562,17.6897192 C2.71399513,17.9697203 3.31332825,17.8911407 3.7033336,17.4977746 C3.79206166,17.4068515 3.87084374,17.3063414 3.93829001,17.1980174 C4.01464793,17.0790425 4.08346325,16.9559927 4.15294837,16.8330322 L5.12638079,15.1102462 C5.05043058,14.9921637 4.3237781,13.9463745 2.68036464,14.3806328 Z" id="Shape"></path>
            </g>
        </g>
    </g>
</svg>

<svg width="183" height="21" xmlns="http://www.w3.org/2000/svg"><g fill="#000" fill-rule="nonzero"><path d="m36.404 17-1.08-3.278h-4.668L29.576 17h-2.339l4.5-12.683h2.558L38.795 17h-2.39ZM32.96 6.559l-1.775 5.414h3.603l-1.766-5.414h-.062Zm12.365.966c2.364 0 3.867 1.837 3.867 4.817 0 2.97-1.494 4.807-3.832 4.807-1.353 0-2.408-.65-2.918-1.696h-.044v4.614H40.21V7.684h2.135v1.608h.044c.528-1.081 1.582-1.767 2.936-1.767Zm-.668 7.831c1.415 0 2.294-1.168 2.294-3.014 0-1.837-.879-3.015-2.294-3.015-1.362 0-2.268 1.204-2.276 3.015.008 1.828.914 3.014 2.276 3.014Zm11.337-7.83c2.364 0 3.867 1.836 3.867 4.816 0 2.97-1.494 4.807-3.832 4.807-1.354 0-2.408-.65-2.918-1.696h-.044v4.614h-2.189V7.684h2.136v1.608h.044c.527-1.081 1.582-1.767 2.936-1.767Zm-.668 7.83c1.415 0 2.294-1.168 2.294-3.014 0-1.837-.88-3.015-2.294-3.015-1.363 0-2.268 1.204-2.277 3.015.01 1.828.914 3.014 2.277 3.014Zm9.797-1.898h2.17c.168 1.169 1.31 1.872 2.892 1.872 1.53 0 2.593-.756 2.593-1.81 0-.915-.633-1.477-2.285-1.82l-1.362-.281c-2.54-.519-3.727-1.714-3.727-3.568 0-2.233 1.96-3.745 4.711-3.745 2.804 0 4.658 1.53 4.711 3.797h-2.17c-.106-1.195-1.108-1.916-2.558-1.916-1.407 0-2.409.668-2.409 1.732 0 .861.633 1.415 2.215 1.749l1.371.281c2.672.554 3.788 1.626 3.788 3.507 0 2.426-1.907 3.955-4.957 3.955-2.935 0-4.878-1.433-4.983-3.753Zm12.303-7.954h2.189v2.18h1.758V9.37h-1.758v4.843c0 .765.351 1.116 1.125 1.116.202 0 .483-.018.624-.044v1.67c-.237.053-.668.088-1.134.088-2.013 0-2.804-.712-2.804-2.523v-5.15H76.09V7.684h1.336v-2.18Zm9.658 11.68c-2.733 0-4.509-1.819-4.509-4.842 0-3.006 1.793-4.852 4.51-4.852 2.715 0 4.508 1.837 4.508 4.852 0 3.023-1.775 4.843-4.509 4.843Zm0-1.73c1.389 0 2.285-1.126 2.285-3.112 0-1.978-.896-3.112-2.285-3.112-1.38 0-2.285 1.134-2.285 3.112 0 1.986.897 3.111 2.285 3.111ZM93.278 17V7.684h2.1V9.31h.045c.316-1.134 1.134-1.785 2.232-1.785.282 0 .528.053.686.088v1.978c-.185-.07-.519-.123-.888-.123-1.24 0-1.986.8-1.986 2.11V17h-2.189Zm12.286-2.786h2.048c-.281 1.758-1.916 2.97-4.122 2.97-2.795 0-4.482-1.836-4.482-4.807 0-2.944 1.705-4.887 4.394-4.887 2.646 0 4.298 1.837 4.298 4.667v.712h-6.513v.132c0 1.494.914 2.496 2.347 2.496 1.02 0 1.793-.51 2.03-1.283Zm-2.153-5.027c-1.23 0-2.118.94-2.206 2.24h4.35c-.044-1.318-.887-2.24-2.144-2.24Zm15.545 8.024c-3.62 0-5.897-2.487-5.897-6.557 0-4.043 2.294-6.548 5.897-6.548 2.945 0 5.186 1.837 5.467 4.562h-2.232c-.3-1.59-1.591-2.637-3.235-2.637-2.18 0-3.577 1.793-3.577 4.623 0 2.848 1.389 4.632 3.586 4.632 1.679 0 2.883-.905 3.234-2.434h2.224c-.396 2.715-2.47 4.359-5.467 4.359Zm11.363-.026c-2.733 0-4.509-1.82-4.509-4.843 0-3.006 1.793-4.852 4.51-4.852 2.715 0 4.508 1.837 4.508 4.852 0 3.023-1.775 4.843-4.509 4.843Zm0-1.732c1.389 0 2.285-1.125 2.285-3.111 0-1.978-.896-3.112-2.285-3.112-1.38 0-2.285 1.134-2.285 3.112 0 1.986.897 3.111 2.285 3.111ZM136.514 17V7.684h2.1v1.6h.045c.5-1.108 1.494-1.776 2.927-1.776 2.056 0 3.225 1.318 3.225 3.471V17h-2.188v-5.581c0-1.318-.616-2.057-1.864-2.057-1.256 0-2.056.906-2.056 2.242V17h-2.189Zm10.326 0V7.684h2.1v1.6h.045c.5-1.108 1.494-1.776 2.926-1.776 2.057 0 3.226 1.318 3.226 3.471V17h-2.188v-5.581c0-1.318-.616-2.057-1.864-2.057-1.257 0-2.056.906-2.056 2.242V17h-2.189Zm16.496-2.786h2.048c-.281 1.758-1.916 2.97-4.122 2.97-2.795 0-4.483-1.836-4.483-4.807 0-2.944 1.705-4.887 4.395-4.887 2.645 0 4.298 1.837 4.298 4.667v.712h-6.513v.132c0 1.494.914 2.496 2.347 2.496 1.02 0 1.793-.51 2.03-1.283Zm-2.153-5.027c-1.23 0-2.119.94-2.206 2.24h4.35c-.044-1.318-.888-2.24-2.144-2.24Zm14.184 1.819H173.3c-.175-.993-.87-1.74-2.039-1.74-1.38 0-2.267 1.16-2.267 3.076 0 1.951.896 3.076 2.285 3.076 1.107 0 1.828-.633 2.03-1.688h2.066c-.176 2.083-1.784 3.455-4.122 3.455-2.725 0-4.483-1.82-4.483-4.843 0-2.98 1.758-4.852 4.465-4.852 2.461 0 3.981 1.556 4.13 3.516Zm2.196-5.502h2.188v2.18h1.758V9.37h-1.758v4.843c0 .765.352 1.116 1.125 1.116.203 0 .484-.018.624-.044v1.67c-.237.053-.668.088-1.133.088-2.013 0-2.804-.712-2.804-2.523v-5.15h-1.336V7.684h1.336v-2.18ZM19.554 12.766a1.219 1.219 0 0 0-.646-.445 1.7 1.7 0 0 0-.371-.058c-.14-.008-.278-.007-.417-.007H15.37L11.732 5.82a3.337 3.337 0 0 0-.892 1.81 3.804 3.804 0 0 0 .452 2.47l4.37 7.733c.07.123.138.246.214.365.068.108.147.209.235.3.39.393.99.471 1.464.191.475-.28.708-.849.57-1.39a1.794 1.794 0 0 0-.137-.358c-.063-.127-.133-.25-.202-.373l-1.008-1.783h1.322c.139 0 .278 0 .417-.007a1.7 1.7 0 0 0 .371-.058c.39-.11.702-.41.831-.802.13-.391.06-.823-.185-1.152Zm-12.25-.51 5.068-8.968c.069-.123.139-.245.202-.372.058-.114.103-.234.136-.358a1.254 1.254 0 0 0-.569-1.391 1.198 1.198 0 0 0-1.464.192c-.088.09-.167.191-.235.3-.076.118-.145.241-.214.364l-.32.568-.32-.568c-.07-.123-.14-.246-.216-.365a1.765 1.765 0 0 0-.234-.3 1.198 1.198 0 0 0-1.464-.19c-.475.28-.708.848-.57 1.39.034.124.08.244.137.358.063.127.133.25.202.372L8.478 5.12l-4.032 7.136H1.683c-.14 0-.278 0-.417.007a1.7 1.7 0 0 0-.371.058 1.24 1.24 0 0 0-.895 1.2c0 .56.366 1.05.895 1.199a1.7 1.7 0 0 0 .371.058c.14.008.278.007.417.007h10.86c.034-.07.062-.144.084-.22.344-1.15-.51-2.31-1.688-2.31H7.304ZM2.68 15.38l-.67 1.187c-.07.123-.14.246-.203.373a1.794 1.794 0 0 0-.136.358 1.254 1.254 0 0 0 .568 1.39c.475.28 1.074.202 1.464-.191.09-.091.168-.192.235-.3.077-.119.145-.242.215-.365l.973-1.723c-.076-.118-.802-1.164-2.446-.73Z"/></g></svg>
